www/assets/icons/egg.svg

<svg xmlns="http://www.w3.org/2000/svg" width="24" height="24" viewBox="0 0 24 24" fill='currentColor'><path d="M12 3C8.5 3 5 9.33 5 14c0 3.87 3.13 7 7 7s7-3.13 7-7c0-4.67-3.5-11-7-11m1 15c-3 0-5-1.99-5-5 0-.55.45-1 1-1s1 .45 1 1c0 2.92 2.42 3 3 3 .55 0 1 .45 1 1s-.45 1-1 1"/></svg>

<svg width="24" height="24" viewBox="0 0 24 24" xmlns="http://www.w3.org/2000/svg" fill='currentColor'><path d="M12 3C8.5 3 5 9.33 5 14C5 17.87 8.13 21 12 21C15.87 21 19 17.87 19 14C19 9.33 15.5 3 12 3ZM13 18C10 18 8 16.01 8 13C8 12.45 8.45 12 9 12C9.55 12 10 12.45 10 13C10 15.92 12.42 16 13 16C13.55 16 14 16.45 14 17C14 17.55 13.55 18 13 18Z"/></svg>
